lib/assets/Button_OrderStatus_Active.svg

<svg xmlns="http://www.w3.org/2000/svg" width="285.576" height="34.505" viewBox="0 0 285.576 34.505"><defs><style>.a{fill:#fff;stroke:#111;stroke-miterlimit:10;stroke-width:2px;}.b{fill:#f26882;}.c,.e{stroke:none;}.d{fill:none;}</style></defs><g transform="translate(-222.01 -1357.571)"><g transform="translate(222.01 1357.571)"><g class="a"><rect class="c" width="285.576" height="34.466" rx="10"/><rect class="d" x="1" y="1" width="283.576" height="32.466" rx="9"/></g></g><g class="b" transform="translate(222.325 1357.702)"><path class="c" d="M 140.6307373046875 33.37439727783203 L 9.045895576477051 33.37439727783203 C 4.609368801116943 33.37439727783203 1.000005006790161 29.76503562927246 1.000005006790161 25.3285083770752 L 1.000005006790161 9.045889854431152 C 1.000005006790161 4.609362125396729 4.609368801116943 0.9999986290931702 9.045895576477051 0.9999986290931702 L 140.6307373046875 0.9999986290931702 L 140.6307373046875 33.37439727783203 Z"/><path class="e" d="M 9.045883178710938 2 C 5.1607666015625 2 1.999984741210938 5.160778045654297 1.999984741210938 9.0458984375 L 1.999984741210938 25.32849884033203 C 1.999984741210938 29.21361923217773 5.1607666015625 32.37439727783203 9.045883178710938 32.37439727783203 L 139.6307220458984 32.37439727783203 L 139.6307220458984 2 L 9.045883178710938 2 M 9.045883178710938 0 L 141.6307220458984 0 L 141.6307220458984 34.37439727783203 L 9.045883178710938 34.37439727783203 C 4.04998779296875 34.37439727783203 -1.52587890625e-05 30.32441902160645 -1.52587890625e-05 25.32849884033203 L -1.52587890625e-05 9.0458984375 C -1.52587890625e-05 4.049978256225586 4.04998779296875 0 9.045883178710938 0 Z"/></g></g></svg>

<svg height="34.505" viewBox="0 0 285.576 34.505" width="285.576" xmlns="http://www.w3.org/2000/svg"><g fill="#fff" stroke="#111" stroke-miterlimit="10" stroke-width="2"><rect height="34.466" rx="10" stroke="none" width="285.576"/><rect fill="none" height="32.466" rx="9" width="283.576" x="1" y="1"/></g><g fill="#f26882" transform="translate(.315 .131)"><path d="m140.6307373 33.37439728h-131.58484172c-4.43652678 0-8.04589057-3.60936165-8.04589057-8.0458889v-16.28261853c0-4.43652772 3.60936379-8.04589122 8.04589057-8.04589122h131.58484172z"/><path d="m9.04588318 2c-3.88511658 0-7.04589844 3.16077805-7.04589844 7.04589844v16.2826004c0 3.88512039 3.16078186 7.04589844 7.04589844 7.04589844h130.58483887v-30.37439728zm0-2h132.58483887v34.37439728h-132.58483887c-4.99589539 0-9.04589844-4.04997826-9.04589844-9.04589844v-16.2826004c0-4.99592018 4.05000305-9.04589844 9.04589844-9.04589844z"/></g></svg>
